assets/icons/qvision/ev_station.svg

<svg xmlns="http://www.w3.org/2000/svg" height="24" viewBox="0 0 24 24" width="24"><path d="M0 0h24v24H0V0z" fill="none"/><path d="M19.77 7.23l.01-.01-3.72-3.72L15 4.56l2.11 2.11c-.94.36-1.61 1.26-1.61 2.33 0 1.38 1.12 2.5 2.5 2.5.36 0 .69-.08 1-.21v7.21c0 .55-.45 1-1 1s-1-.45-1-1V14c0-1.1-.9-2-2-2h-1V5c0-1.1-.9-2-2-2H6c-1.1 0-2 .9-2 2v16h10v-7.5h1.5v5c0 1.38 1.12 2.5 2.5 2.5s2.5-1.12 2.5-2.5V9c0-.69-.28-1.32-.73-1.77zM18 10c-.55 0-1-.45-1-1s.45-1 1-1 1 .45 1 1-.45 1-1 1zM8 18v-4.5H6L10 6v5h2l-4 7z"/></svg>

<svg width="24" height="24" viewBox="0 0 24 24" fill="none" xmlns="http://www.w3.org/2000/svg">
<g clip-path="url(#clip0_147_5287)">
<path d="M19.77 7.23L19.78 7.22L16.06 3.5L15 4.56L17.11 6.67C16.17 7.03 15.5 7.93 15.5 9C15.5 10.38 16.62 11.5 18 11.5C18.36 11.5 18.69 11.42 19 11.29V18.5C19 19.05 18.55 19.5 18 19.5C17.45 19.5 17 19.05 17 18.5V14C17 12.9 16.1 12 15 12H14V5C14 3.9 13.1 3 12 3H6C4.9 3 4 3.9 4 5V21H14V13.5H15.5V18.5C15.5 19.88 16.62 21 18 21C19.38 21 20.5 19.88 20.5 18.5V9C20.5 8.31 20.22 7.68 19.77 7.23ZM18 10C17.45 10 17 9.55 17 9C17 8.45 17.45 8 18 8C18.55 8 19 8.45 19 9C19 9.55 18.55 10 18 10ZM8 18V13.5H6L10 6V11H12L8 18Z" fill="#323232"/>
</g>
<defs>
<clipPath id="clip0_147_5287">
<rect width="24" height="24" fill="white"/>
</clipPath>
</defs>
</svg>
